src/resources/icons-ec/src/all/regulation.svg

<?xml version="1.0" encoding="UTF-8" ?>
<svg xmlns="http://www.w3.org/2000/svg" viewBox="0 0 48 48"><defs><style
    >.cls-1{fill:none;}.cls-2{fill-rule:evenodd;}</style></defs><g
    id="transparant_bg"
  ><rect class="cls-1" y="0" width="48" height="48" /></g><g id="Layer_1"><path
      class="cls-2"
      d="M24,2l22,12v2H2v-2c.17-.44,16.96-9.59,22-12Zm-8,18l-2,2v16H6V22l-2-2h12Zm26,2l2-2h-12l2,2v16h8V22Zm-12-2l-2,2v16h-8V22l-2-2h12Zm16,26v-4H2v4H46Z"
    /></g></svg>

<?xml version="1.0" encoding="UTF-8"?>
<svg width="48px" height="48px" viewBox="0 0 48 48" version="1.1" xmlns="http://www.w3.org/2000/svg" xmlns:xlink="http://www.w3.org/1999/xlink">
    <title>EC/Icons/General/2XL_48x48px/Icon-Regulation</title>
    <defs>
        <path d="M24,2 L46,14 L46,16 L2,16 L2,14 C2.16923366,13.5552409 18.9602215,4.41440636 24,2 Z M16,20 L14,22 L14,38 L6,38 L6,22 L4,20 L16,20 Z M44,20 L42,22 L42,38 L34,38 L34,22 L32,20 L44,20 Z M30,20 L28,22 L28,38 L20,38 L20,22 L18,20 L30,20 Z M2,42 L46,42 L46,46 L2,46 L2,42 Z" id="path-1"></path>
    </defs>
    <g id="EC/Icons/General/2XL_48x48px/Icon-Regulation" stroke="none" stroke-width="1">
        <mask id="mask-2">
            <use xlink:href="#path-1"></use>
        </mask>
        <use id="Regulation" xlink:href="#path-1"></use>
    </g>
</svg>
